X:1
T:Title
%%score { 1 | ( 2 3 ) }
L:1/8
Q:1/4=100
M:2/2
K:Bb
V:1 treble nm="Grand Piano"
V:2 bass 
V:3 bass 
V:1
 [Fd]4 [DFB]2 [DF]2 | [EG]4 [DF]4 | [FB]4 [EA]2 [DB]2 | c2 d2 c4 | [Fd]4 [FB]2 F2 | G4 B2 G2 | %6
w: W.~H.~Doane * *||||||
 F2 B2 B2 A2 | [DB]8 | c2 B2 A2 G2 | [DF]4 [FB]4 | c2 B2 A2 G2 | [DF]4 B4 | %12
w: ||||||
 [DB]2 [Fd]2 [Fd]2 [FB]2 | [EG]2 [GB]2 [GB]2 G2 | F2 B2 B2 A2 | [B,DB]8 | [EFc]4 [DFB]2 [CFA]2 | %17
w: |||||
 [DFB]4 [B,DF]4 | E2 E2 F2 E2 | D2 [CE]2 [DF]4 | [DB]2 [Fd]2 [Fd]2 [FB]2 | [EG]2 [GB]2 [GB]2 G2 | %22
w: |||||
 F2 B2 B2 A2 | [DB]8 |] %24
w: ||
V:2
 [B,,B,]4 B,,2 [B,,B,]2 | [B,,B,]4 [B,,B,]4 | [D,B,]4 [C,F,]2 [B,,F,]2 | %3
 [F,A,F]2 [F,B,F]2 [F,A,F]4 | [B,,B,]4 [D,B,]2 [D,B,D]2 | [E,B,E]4 [E,G,E]2 [E,B,E]2 | %6
 [F,B,D]2 [F,DF]2 [F,DF]2 [F,CE]2 | [B,,B,]8 | [F,A,E]2 [F,B,D]2 [F,CE]2 [F,A,E]2 | %9
 [B,,B,]4 [D,B,]4 | [F,A,E]2 [F,B,D]2 [F,CE]2 [F,A,E]2 | [B,,B,]4 [F,D]4 | %12
 [B,,F,]2 [B,,B,]2 [B,,B,]2 [D,B,]2 | [E,B,]2 [E,B,]2 z2 E2 | [F,B,D]2 [F,DF]2 [F,DF]2 [F,CE]2 | %15
 B,,8 | F,4 F,2 F,2 | B,,4 B,,4 | [F,C]2 [F,C]2 [F,D]2 [F,C]2 | [B,,F,B,]2 [B,,F,]2 [B,,B,]4 | %20
 [B,,F,]2 [B,,B,]2 [B,,B,]2 [D,B,]2 | [E,B,]2 [E,B,]2 [E,B,]2 [E,B,E]2 | %22
 [F,B,D]2 [F,DF]2 [F,DF]2 [F,CE]2 | [B,,B,]8 |] %24
V:3
 x8 | x8 | x8 | x8 | x8 | x8 | x8 | x8 | x8 | x8 | x8 | x8 | x8 | z4 [E,B,]4 | x8 | x8 | x8 | x8 | %18
 x8 | x8 | x8 | x8 | x8 | x8 |] %24

